icons/op-camera-24.svg

<svg width="24" height="24" viewBox="0 0 24 24" fill="none" xmlns="http://www.w3.org/2000/svg">
<path d="M17.3125 9.06818C16.8125 9.40909 16.125 9.85227 15.7188 10.125C15.3125 10.3636 15 10.0909 15 9.51136V7.09091C15 6.47727 14.5625 6 14 6H5C4.4375 6 4 6.47727 4 7.09091V16.9091C4 17.5227 4.4375 18 5 18H14C14.5625 18 15 17.5227 15 16.9091V14.4545C15 13.8409 15.3125 13.5682 15.7188 13.8409C16.125 14.1136 16.8125 14.5568 17.3125 14.8636L19.1562 16.0909C19.625 16.3977 20 16.1591 20 15.5455V13.0568V8.42045C20 7.80682 19.625 7.56818 19.1562 7.875L17.3125 9.06818Z" fill="black"/>
</svg>

<svg xmlns="http://www.w3.org/2000/svg" width="24" height="24" viewBox="0 0 24 24"><path d="M17.312 9.068c-.5.341-1.187.784-1.593 1.057-.407.239-.719-.034-.719-.614v-2.42C15 6.477 14.562 6 14 6H5c-.562 0-1 .477-1 1.091v9.818C4 17.523 4.438 18 5 18h9c.562 0 1-.477 1-1.091v-2.455c0-.613.312-.886.719-.613.406.273 1.093.716 1.593 1.023l1.844 1.227c.469.307.844.068.844-.545V8.42c0-.613-.375-.852-.844-.545l-1.844 1.193Z"/></svg>
